X:117
T:A Mile to Ride
Z:Jack Campin, http://www.campin.me.uk/
S:Northumbrian Minstrelsy
M:9/8
L:1/8
K:G
dBd g2g f2d|g2B BcB d2e |\
dBd g2g f2d|ecA ABA c2e:| 
dBG G2c B2c|dBG GAB c2e |\
dBB G2c B2d|ecA A2B c2e:|

